X: 1
T: Valerie Farr's Reel
C: Frank Reid
S: Ron Wallace from Frank Reid/London Jubilee
Z: Steve Wyrick 10-22-06
N: Currie Mountain Reel - Lead Tune
L: 1/8
M: C|
R: Reel
K: A
ed \
| "A"c2e2"A7"e2 dc | "D"d2f2 "B7"B3A  | "E"G2e2 "E7"edcB | "A"AGAB "E7"c2ed \
| "A"c2e2"A7"e2 dc | "D"d2f2 "B7"B3A  | "E"G2e2 "E7"edcB | "A"A4       A2  :|
|: BA \
| "E"G2GA "E7"B2AG | "A"ABcd "A7"e2de | "D"f2e2 "Bm"d2c2 | "B7"c4   "E7"B2ed \
| "A"c2e2"A7"e2 dc | "D"d2f2 "B7"B3A  | "E"G2e2 "E7"edcB |  "A"A4 "(A7)"A2  :|
